Origami/24x24/apps/manaplus.svg

<svg width="24" height="24" version="1.1" viewBox="0 0 24 24" xmlns="http://www.w3.org/2000/svg">
 <path d="M 12,2 A 10,10 0 0 0 2,12 10,10 0 0 0 12,22 10,10 0 0 0 22,12 10,10 0 0 0 12,2 Z" style="fill:#d66829"/>
 <path d="M 2.01075,12.209 A 10,10 0 0 0 2,12.5 10,10 0 0 0 12,22.5 10,10 0 0 0 22,12.5 10,10 0 0 0 21.9895,12.291 10,10 0 0 1 12,22 10,10 0 0 1 2.011,12.209 Z" style="opacity:.2"/>
 <path d="m12 2a10 10 0 0 0 -10 10 10 10 0 0 0 0.01075 0.209 10 10 0 0 1 9.989 -9.709 10 10 0 0 1 9.9895 9.791 10 10 0 0 0 0.0105 -0.291 10 10 0 0 0 -10 -10z" style="fill:#ffffff;opacity:.2"/>
 <path d="m11.0002 17.485758v-5s0-1 2-1 2 1 2 1v5m-8.0001 0v-5s0-1 2-1 2 1 2 1v5" style="fill:none;opacity:.2;stroke-linecap:round;stroke-linejoin:round;stroke-width:2;stroke:#000000"/>
 <path d="m11.0002 16.985758v-5s0-1 2-1 2 1 2 1v5m-8.0001 0v-5s0-1 2-1 2 1 2 1v5" style="fill:none;stroke-linecap:round;stroke-linejoin:round;stroke-width:2;stroke:#f8bf94"/>
 <path d="m9.000075 9.9853505c-1.1666665 0-1.971329 0.3072675-2.457031 0.7929715-0.242852 0.24285-0.3865475 0.51511-0.459961 0.735351-0.073414 0.220241-0.083008 0.47168-0.083008 0.47168v0.5s0.0096-0.251439 0.083008-0.47168c0.073414-0.220241 0.217109-0.492501 0.459961-0.735351 0.485702-0.485703 1.2903645-0.79297 2.457031-0.79297 0.8926135 0 1.511904 0.219473 2 0.521485 0.48812-0.302136 1.107183-0.521485 2-0.521485 1.166667 0 1.97133 0.307267 2.457031 0.79297 0.242852 0.24285 0.387524 0.51511 0.460938 0.735351 0.07342 0.220241 0.08203 0.47168 0.08203 0.47168v-0.5s-0.0086-0.251439-0.08203-0.47168c-0.07341-0.220241-0.218087-0.492501-0.460938-0.735351-0.485701-0.485704-1.290364-0.7929715-2.457031-0.7929715-0.892817 0-1.51188 0.2193495-2 0.5214865-0.488096-0.302013-1.1073865-0.5214865-2-0.5214865z" style="fill:#ffffff;opacity:.1"/>
 <path d="m17.5 6.5c-0.277 0-0.5 0.2672094-0.5 0.5996094v1.4003906h-1.400391c-0.3324 0-0.599609 0.223-0.599609 0.5s0.267209 0.5 0.599609 0.5h1.400391v1.400391c0 0.3324 0.223 0.599609 0.5 0.599609s0.5-0.267209 0.5-0.599609v-1.400391h1.400391c0.3324 0 0.599609-0.223 0.599609-0.5s-0.267209-0.5-0.599609-0.5h-1.400391v-1.4003906c0-0.3324-0.223-0.5996094-0.5-0.5996094z" style="opacity:.2"/>
 <path d="m17.5 6c-0.277 0-0.5 0.2672094-0.5 0.5996094v1.4003906h-1.400391c-0.3324 0-0.599609 0.223-0.599609 0.5s0.267209 0.5 0.599609 0.5h1.400391v1.400391c0 0.3324 0.223 0.599609 0.5 0.599609s0.5-0.267209 0.5-0.599609v-1.400391h1.400391c0.3324 0 0.599609-0.223 0.599609-0.5s-0.267209-0.5-0.599609-0.5h-1.400391v-1.4003906c0-0.3324-0.223-0.5996094-0.5-0.5996094z" style="fill:#fffefd"/>
</svg>

<svg xmlns="http://www.w3.org/2000/svg" width="24" height="24" version="1.1" viewBox="0 0 24 24">
 <path style="fill:#d66829" d="M 12,2 A 10,10 0 0 0 2,12 10,10 0 0 0 12,22 10,10 0 0 0 22,12 10,10 0 0 0 12,2 Z"/>
 <path style="opacity:0.2" d="M 2.01075,12.209 A 10,10 0 0 0 2,12.5 10,10 0 0 0 12,22.5 10,10 0 0 0 22,12.5 10,10 0 0 0 21.9895,12.291 10,10 0 0 1 12,22 10,10 0 0 1 2.011,12.209 Z"/>
 <path style="opacity:0.2;fill:#ffffff" d="m 12,2 a 10,10 0 0 0 -10,10 10,10 0 0 0 0.01075,0.209 10,10 0 0 1 9.989,-9.709 10,10 0 0 1 9.9895,9.791 10,10 0 0 0 0.0105,-0.291 10,10 0 0 0 -10,-10 z"/>
 <path style="opacity:0.2;fill:none;stroke:#000000;stroke-width:2;stroke-linecap:round;stroke-linejoin:round" d="m 11.0002,17.485758 v -5 c 0,0 0,-1 2,-1 2,0 2,1 2,1 v 5 m -8.0001,0 v -5 c 0,0 0,-1 2,-1 2,0 2,1 2,1 v 5"/>
 <path style="fill:none;stroke:#f8bf94;stroke-width:2;stroke-linecap:round;stroke-linejoin:round" d="m 11.0002,16.985758 v -5 c 0,0 0,-1 2,-1 2,0 2,1 2,1 v 5 m -8.0001,0 v -5 c 0,0 0,-1 2,-1 2,0 2,1 2,1 v 5"/>
 <path style="opacity:0.1;fill:#ffffff" d="m 9.000075,9.9853505 c -1.1666665,0 -1.971329,0.3072675 -2.457031,0.7929715 -0.242852,0.24285 -0.3865475,0.51511 -0.459961,0.735351 -0.073414,0.220241 -0.083008,0.47168 -0.083008,0.47168 v 0.5 c 0,0 0.0096,-0.251439 0.083008,-0.47168 0.073414,-0.220241 0.217109,-0.492501 0.459961,-0.735351 0.485702,-0.485703 1.2903645,-0.79297 2.457031,-0.79297 0.8926135,0 1.511904,0.219473 2,0.521485 0.48812,-0.302136 1.107183,-0.521485 2,-0.521485 1.166667,0 1.97133,0.307267 2.457031,0.79297 0.242852,0.24285 0.387524,0.51511 0.460938,0.735351 0.07342,0.220241 0.08203,0.47168 0.08203,0.47168 v -0.5 c 0,0 -0.0086,-0.251439 -0.08203,-0.47168 -0.07341,-0.220241 -0.218087,-0.492501 -0.460938,-0.735351 -0.485701,-0.485704 -1.290364,-0.7929715 -2.457031,-0.7929715 -0.892817,0 -1.51188,0.2193495 -2,0.5214865 -0.488096,-0.302013 -1.1073865,-0.5214865 -2,-0.5214865 z"/>
 <path style="opacity:0.2" d="M 17.5,6.5 C 17.223,6.5 17,6.7672094 17,7.0996094 V 8.5 H 15.599609 C 15.267209,8.5 15,8.723 15,9 c 0,0.277 0.267209,0.5 0.599609,0.5 H 17 v 1.400391 C 17,11.232791 17.223,11.5 17.5,11.5 17.777,11.5 18,11.232791 18,10.900391 V 9.5 h 1.400391 C 19.732791,9.5 20,9.277 20,9 20,8.723 19.732791,8.5 19.400391,8.5 H 18 V 7.0996094 C 18,6.7672094 17.777,6.5 17.5,6.5 Z"/>
 <path style="fill:#fffefd" d="M 17.5 6 C 17.223 6 17 6.2672094 17 6.5996094 L 17 8 L 15.599609 8 C 15.267209 8 15 8.223 15 8.5 C 15 8.777 15.267209 9 15.599609 9 L 17 9 L 17 10.400391 C 17 10.732791 17.223 11 17.5 11 C 17.777 11 18 10.732791 18 10.400391 L 18 9 L 19.400391 9 C 19.732791 9 20 8.777 20 8.5 C 20 8.223 19.732791 8 19.400391 8 L 18 8 L 18 6.5996094 C 18 6.2672094 17.777 6 17.5 6 z"/>
</svg>
